assets/images/clients/NESTLE.svg

<svg width="300" height="120" viewBox="0 0 300 120" fill="none" xmlns="http://www.w3.org/2000/svg">
<g clip-path="url(#clip0_3300_14562)">
<path fill-rule="evenodd" clip-rule="evenodd" d="M176.718 50.7304C176.718 50.0202 176.087 49.3887 175.297 49.3887H173.323C172.534 49.3887 171.902 50.0202 171.902 50.7304L171.982 71.8887C171.982 72.5989 172.534 73.2304 173.323 73.2304H175.297C176.087 73.2304 176.718 72.5989 176.718 71.8887V50.7304Z" fill="#949494"/>
<path fill-rule="evenodd" clip-rule="evenodd" d="M179.242 51.3619V52.3094C179.242 52.7823 179.558 53.0983 180.032 53.0983H193.926C194.558 53.0983 195.11 52.5468 195.11 51.9153V50.2563C195.11 49.6248 194.558 48.9933 193.926 49.0733C193.926 49.0733 180.505 50.415 180.032 50.4937C179.558 50.4937 179.242 50.8878 179.242 51.3619Z" fill="#949494"/>
<path fill-rule="evenodd" clip-rule="evenodd" d="M167.955 73.2309C164.481 73.2309 162.349 70.6257 162.349 67.7049V59.257H161.322C160.849 59.257 160.375 58.7829 160.375 58.3095V56.8879C160.375 56.3363 160.848 55.9403 161.322 55.9403H162.349V50.7304C162.349 50.0202 162.902 49.3887 163.691 49.3887H165.665C166.375 49.3887 166.928 50.0202 166.928 50.7304V55.9403H170.007C170.559 55.9403 170.954 56.3357 170.954 56.8879V58.3095C170.954 58.7823 170.56 59.257 170.007 59.257H166.928V67.0734C166.928 68.5726 167.875 69.6787 169.533 69.6787H169.849C170.402 69.6787 170.876 70.0729 170.876 70.705V72.2053C170.876 72.7581 170.403 73.2316 169.849 73.2316L167.955 73.2309Z" fill="#949494"/>
<path fill-rule="evenodd" clip-rule="evenodd" d="M144.272 64.3101C144.272 59.8103 141.588 55.3105 135.508 55.3105C129.903 55.3105 126.824 59.7304 126.824 64.3101C126.824 69.204 130.14 73.5469 135.587 73.5469C139.298 73.5469 142.929 71.6524 143.64 68.4157C143.718 68.0215 143.403 67.3894 142.85 67.3894H140.166C139.693 67.3894 139.298 67.6255 139.061 68.0209C138.271 69.1259 137.166 69.6787 135.587 69.6787C133.219 69.6787 131.639 67.8623 131.481 65.8104H142.771C143.798 65.8104 144.272 65.2576 144.272 64.3101ZM131.561 62.4156C131.719 60.4424 133.455 58.9421 135.508 58.9421C137.64 58.9421 139.377 60.4424 139.614 62.4156H131.561Z" fill="#949494"/>
<path fill-rule="evenodd" clip-rule="evenodd" d="M195.588 64.3101C195.588 59.8103 192.904 55.3105 186.824 55.3105C181.219 55.3105 178.141 59.7304 178.141 64.3101C178.141 69.204 181.457 73.5469 186.903 73.5469C190.614 73.5469 194.245 71.6524 194.956 68.4157C195.035 68.0215 194.719 67.3894 194.167 67.3894H191.483C191.009 67.3894 190.614 67.6255 190.377 68.0209C189.587 69.1259 188.482 69.6787 186.824 69.6787C184.535 69.6787 182.956 67.8623 182.798 65.8104H194.088C195.114 65.8104 195.588 65.2576 195.588 64.3101ZM182.877 62.4156C183.035 60.4424 184.771 58.9421 186.824 58.9421C188.956 58.9421 190.693 60.4424 190.851 62.4156H182.877Z" fill="#949494"/>
<path fill-rule="evenodd" clip-rule="evenodd" d="M158.559 49.6256H122.085C121.217 49.6256 120.585 50.337 120.585 51.1259L120.664 65.4952C120.664 65.4952 112.848 51.2845 112.454 50.5731C112.059 49.8629 111.191 49.2314 110.086 49.2314H107.086C106.217 49.2314 105.586 49.9429 105.586 50.7318V71.7314C105.586 72.6002 106.217 73.2317 107.086 73.2317H108.98C109.848 73.2317 110.48 72.6002 110.48 71.7314L110.402 57.0479C110.402 57.0479 118.296 71.3372 118.691 71.89C119.086 72.6789 119.875 73.2317 120.98 73.2317H123.744C124.612 73.2317 125.243 72.6002 125.243 71.7314V53.1796H158.559C159.111 53.1796 159.585 52.7056 159.585 52.1534V50.6531C159.585 50.0997 159.112 49.6256 158.559 49.6256Z" fill="#949494"/>
<path fill-rule="evenodd" clip-rule="evenodd" d="M152.639 58.7825C154.218 58.7825 155.402 59.3352 155.876 60.3615C156.034 60.8355 156.428 60.9142 156.982 60.9142H159.192C159.508 60.9142 159.982 60.5982 159.982 60.1253C159.982 57.5988 156.903 55.3096 152.64 55.3096C148.218 55.3096 145.298 57.4402 145.298 60.7568C145.298 63.3621 147.35 64.8624 149.798 65.5726C150.982 65.81 152.956 66.2828 153.903 66.5989C154.85 66.8362 155.797 67.1517 155.797 68.0205C155.797 69.4409 154.376 69.8357 152.718 69.8357C151.218 69.8357 149.718 69.2042 149.323 68.0992C149.087 67.4677 148.613 67.389 147.981 67.389H145.771C145.376 67.389 144.902 67.7832 144.902 68.2566V68.5727C144.902 71.0205 148.218 73.5465 152.797 73.5465C155.955 73.5465 160.455 72.2048 160.455 67.9406C160.455 65.414 158.797 63.6782 156.034 62.968C155.007 62.7306 152.482 62.0204 151.929 61.9405C150.902 61.6244 149.955 61.309 149.955 60.5201C149.955 59.1784 151.139 58.7825 152.639 58.7825Z" fill="#949494"/>
</g>
<defs>
<clipPath id="clip0_3300_14562">
<rect width="91" height="25" fill="white" transform="translate(105 49)"/>
</clipPath>
</defs>
</svg>

<svg width="300" height="120" viewBox="0 0 300 120" fill="none" xmlns="http://www.w3.org/2000/svg"><g clip-path="url(#a)" fill-rule="evenodd" clip-rule="evenodd" fill="#949494"><path d="M176.718 50.73c0-.71-.631-1.341-1.421-1.341h-1.974c-.789 0-1.421.631-1.421 1.341l.08 21.159c0 .71.552 1.341 1.341 1.341h1.974c.79 0 1.421-.631 1.421-1.341V50.73Zm2.524.632v.947c0 .473.316.79.79.79h13.894c.632 0 1.184-.552 1.184-1.184v-1.659c0-.631-.552-1.263-1.184-1.183 0 0-13.421 1.342-13.894 1.42-.474 0-.79.395-.79.869ZM167.955 73.23c-3.474 0-5.606-2.604-5.606-5.525v-8.448h-1.027c-.473 0-.947-.474-.947-.947v-1.422c0-.552.473-.948.947-.948h1.027v-5.21c0-.71.553-1.341 1.342-1.341h1.974c.71 0 1.263.631 1.263 1.341v5.21h3.079c.552 0 .947.396.947.948v1.422c0 .472-.394.947-.947.947h-3.079v7.816c0 1.5.947 2.606 2.605 2.606h.316c.553 0 1.027.394 1.027 1.026v1.5c0 .553-.473 1.027-1.027 1.027l-1.894-.001Zm-23.683-8.92c0-4.5-2.684-9-8.764-9-5.605 0-8.684 4.42-8.684 9 0 4.894 3.316 9.237 8.763 9.237 3.711 0 7.342-1.895 8.053-5.131.078-.394-.237-1.027-.79-1.027h-2.684a1.26 1.26 0 0 0-1.105.632c-.79 1.105-1.895 1.658-3.474 1.658-2.368 0-3.948-1.817-4.106-3.869h11.29c1.027 0 1.501-.552 1.501-1.5Zm-12.711-1.894c.158-1.974 1.894-3.474 3.947-3.474 2.132 0 3.869 1.5 4.106 3.474h-8.053Zm64.027 1.894c0-4.5-2.684-9-8.764-9-5.605 0-8.683 4.42-8.683 9 0 4.894 3.316 9.237 8.762 9.237 3.711 0 7.342-1.895 8.053-5.131.079-.394-.237-1.027-.789-1.027h-2.684a1.26 1.26 0 0 0-1.106.632c-.79 1.105-1.895 1.658-3.553 1.658-2.289 0-3.868-1.817-4.026-3.869h11.29c1.026 0 1.5-.552 1.5-1.5Zm-12.711-1.894c.158-1.974 1.894-3.474 3.947-3.474 2.132 0 3.869 1.5 4.027 3.474h-7.974Z"/><path d="M158.559 49.626h-36.474a1.5 1.5 0 0 0-1.5 1.5l.079 14.37s-7.816-14.211-8.21-14.923c-.395-.71-1.263-1.342-2.368-1.342h-3a1.5 1.5 0 0 0-1.5 1.5v21c0 .87.631 1.5 1.5 1.5h1.894c.868 0 1.5-.63 1.5-1.5l-.078-14.683s7.894 14.29 8.289 14.842c.395.789 1.184 1.342 2.289 1.342h2.764c.868 0 1.499-.632 1.499-1.5V53.18h33.316c.552 0 1.026-.474 1.026-1.027v-1.5c0-.553-.473-1.027-1.026-1.027Z"/><path d="M152.639 58.782c1.579 0 2.763.553 3.237 1.58.158.474.552.552 1.106.552h2.21c.316 0 .79-.316.79-.789 0-2.526-3.079-4.815-7.342-4.815-4.422 0-7.342 2.13-7.342 5.447 0 2.605 2.052 4.105 4.5 4.816 1.184.237 3.158.71 4.105 1.026.947.237 1.894.553 1.894 1.421 0 1.42-1.421 1.816-3.079 1.816-1.5 0-3-.632-3.395-1.737-.236-.631-.71-.71-1.342-.71h-2.21c-.395 0-.869.394-.869.868v.316c0 2.448 3.316 4.974 7.895 4.974 3.158 0 7.658-1.342 7.658-5.606 0-2.527-1.658-4.263-4.421-4.973-1.027-.237-3.552-.948-4.105-1.028-1.027-.316-1.974-.631-1.974-1.42 0-1.342 1.184-1.738 2.684-1.738Z"/></g><defs><clipPath id="a"><path fill="#fff" transform="translate(105 49)" d="M0 0h91v25H0z"/></clipPath></defs></svg>
